X:1
T:Title
%%score { ( 1 3 ) | ( 2 4 ) }
L:1/8
M:4/4
K:Ab
V:1 treble nm="Grand Piano"
V:3 treble 
V:2 bass 
V:4 bass 
V:1
 z4 z2[Q:1/4=100] [CA][DB] | [Ec][Ec][DB][CA] [Ec][Ec][Fd][Ec] | B4 F2 z F | %3
 [CE][_C=D][=CE][_DF] [CE]cBA | B6 cd | eedd c[EA]Bc | [Fe]4 [Fd]2 [FB]2 | ABce F<F G>B | %8
[M:3/4] [A,CA]6 |[M:1/4] c2 |[M:4/4] z e3- e2 z2 | z A3- A2 z2 | cBBB [=DB][DB][Ec][F=d] | %13
 e2- [Ge-][Ae-] [Be]2 cd | eedd c[EA]Bc | [Fe]4 [Fd]2 [FB]2 | ABce F<F G>B |[M:3/4] [CA]6 |] %18
V:2
 z4 z2 [A,,A,][A,,A,] | [A,,A,][A,,A,][A,,E,][A,,E,] [A,,A,][A,,A,][A,,A,][A,,A,] | %2
 [D,F,D]4 [D,A,D]2 z [D,A,D] | [A,,A,][A,,A,][A,,A,][A,,A,] [A,,A,][A,E][G,B,E][F,B,=D] | %4
 [E,G,E]6 [A,E][A,B,E] | [A,CE][A,CE][G,B,E][G,B,E] [A,E][C,A,][E,G,E][A,_G] | %6
 [D,A,]4 [D,A,]2 [D,D]2 | [E,CE][E,DE][E,E][E,CE] [E,DE]<[E,DE] [E,B,D]>[E,G,D] |[M:3/4] A,,6 | %9
[M:1/4][K:treble] E2 |[M:4/4] z E3- E2 z2 | z[K:bass] F3- F2 z2 | %12
 [E,A,E][E,G,E][E,G,E][E,G,E] [B,,B,][B,,B,][B,,B,][B,,B,] | B,2 z2 z2 [A,E]2 | %14
 [A,CE][A,CE][G,B,E][G,B,E] [A,E][C,A,][E,G,E][A,_G] | [D,A,]4 [D,A,]2 [D,D]2 | %16
 [E,CE][E,DE][E,E][E,CE] [E,DE]<[E,DE] [E,B,D]>[E,G,D] |[M:3/4] [A,,A,]6 |] %18
V:3
 x8 | x8 | x8 | x8 | x8 | x8 | x8 | x8 |[M:3/4] x6 |[M:1/4] x2 |[M:4/4] .c2 CC CC E2 | %11
 .F2 A,A, A,A, c2 | x8 | G2 z2 z4 | x8 | x8 | x8 |[M:3/4] x6 |] %18
V:4
 x8 | x8 | x8 | x8 | x8 | x8 | x8 | x8 |[M:3/4] x6 |[M:1/4][K:treble] x2 | %10
[M:4/4] .E2 A,A, z A, C2 | .D2[K:bass] D,D, D,F, [A,E]2 | x8 | E,2- [E,-B,][E,-C] [E,D]2 z B, | %14
 x8 | x8 | x8 |[M:3/4] x6 |] %18

